X:1
T:Title
%%score { ( 1 3 4 ) | ( 2 5 ) }
L:1/8
M:4/4
K:E
V:1 treble nm="Grand Piano"
V:3 treble 
V:4 treble 
V:2 bass 
V:5 bass 
V:1
 z4 z2 z[Q:1/4=110] [B,GB] | z4 z2 .G2 | B4 z4 | z4 A4 | G6 G2 | F3 ^A GFGA | %6
 [FB]3 [Ff] [Fd]2 [=Gd]2 | [Gc]2 G2 z2 z c | [DB]6 B2 | c3 c [Ad]2 cd | [Ge]2 [Ge]2 d2 c2 | %11
 B3 G [Ec]3 [EG] | B4 B4 |[M:7/8] [G,E]-[G,E]-[G,E]- [G,E]3 z |[M:1/8] [B,GB] | %15
[M:4/4] [B,GB]3 [B,GB] [B,GB]>[B,GB] [FB]>[EB] | [DB]6 B2 | c3 c c>c [GB]>[FA] |[M:3/4] [EG]6 | %19
[M:1/4] [GB][GB] |[M:9/8] e2 c- c [Ad]2- [Ad][AB][AB] | d2 B- B [Fc]2- [Fc][EG][EG] |[M:4/4] B8 | %23
[M:7/8][K:bass] [E,G,E]-[E,G,E]-[E,G,E]- [E,G,E]3 z |] %24
V:2
 z4 z2 z E, | E,2 E,2 E,2 C,2 | F,3 B, [E,B,E]2 z [E,B,E] | [A,CE]2 [G,CE]2 [F,CE]2 [B,,B,]2 | %4
 [E,B,E]6 [E,B,E]2 | [E,^A,C]4 [E,A,C]2 [E,DF]2 | [D,B,]3 [C,^A,] [B,,B,]2 [B,,B,]2 | %7
 [E,B,]2 [E,B,E]2 [F,E]2 F,2 | [B,,F,]6 [B,D]2 | [A,E]3 [A,E] [F,B,]2 [F,B,]2 | %10
 [E,B,]2 [E,B,]2 [A,B,E]2 [A,E]2 | [G,E]3 [G,E] [C,G,]3 [C,G,] | [B,,F,A,]4 z2 D2 | %13
[M:7/8] E,-E,-E,- E,3 z |[M:1/8] E, |[M:4/4] E,3 E, D,>E, [E,A,]>[D,G,] | [B,,F,]6 B,2 | %17
 [B,DA]3 [B,DA] [B,DA]>[B,DA][K:bass] [B,,B,]>[D,B,] |[M:3/4] [E,B,]6 |[M:1/4] [E,B,][E,B,] | %20
[M:9/8] [E,B,]3- [E,B,] [E,B,]2- [E,B,][E,B,][E,B,] | %21
 [E,B,]3- [E,B,] [E,A,E]2- [E,A,E][C,G,][C,G,] |[M:4/4] z2 D2 C2 D2 |[M:7/8] E,,-E,,-E,,- E,,3 z |] %24
V:3
 x8 | [B,GB]2 [B,GB]2 [B,EG]2 [G,E]-[G,Ec] | z2 z A G2 z G | F2 G2 z2 z B | x8 | x8 | x8 | z4 ^A4 | %8
 x8 | z4 z2 A2 | x8 | x8 | E2 D2 C2 z2 |[M:7/8] x7 |[M:1/8] x |[M:4/4] x8 | x8 | x8 |[M:3/4] x6 | %19
[M:1/4] x2 |[M:9/8] .G6 z3 | .A6 z3 |[M:4/4] E2 z2 z4 |[M:7/8][K:bass] x7 |] %24
V:4
 x8 | x8 | z2 D2 z4 | z4 z2 D2 | x8 | x8 | x8 | z4 z2 E2 | x8 | x8 | x8 | x8 | x8 |[M:7/8] x7 | %14
[M:1/8] x |[M:4/4] x8 | x8 | x8 |[M:3/4] x6 |[M:1/4] x2 |[M:9/8] x9 | x9 |[M:4/4] x8 | %23
[M:7/8][K:bass] x7 |] %24
V:5
 x8 | x8 | [D,B,]2 B,,2 z4 | x8 | x8 | x8 | x8 | x8 | x8 | x8 | x8 | x8 | z4 [B,,F,A,]4 | %13
[M:7/8] x7 |[M:1/8] x |[M:4/4] x8 | x8 | x6[K:bass] x2 |[M:3/4] x6 |[M:1/4] x2 |[M:9/8] x9 | x9 | %22
[M:4/4] [B,,F,A,]8 |[M:7/8] x7 |] %24

